libs/icons/src/svg/world.svg

<svg width="16" height="16" viewBox="0 0 16 16" fill="none" xmlns="http://www.w3.org/2000/svg">
<g clip-path="url(#clip0_4_506)">
<path fill-rule="evenodd" clip-rule="evenodd" d="M5.38977 1.86371C3.19985 2.79644 1.6111 4.86721 1.36625 7.33333H3.35211C3.47124 5.23448 4.15655 3.30826 5.38977 1.86371ZM1.36625 8.66667C1.61111 11.1328 3.1999 13.2036 5.38988 14.1363C4.15661 12.6918 3.47126 10.7655 3.35211 8.66667H1.36625ZM10.6101 14.1363C12.8001 13.2036 14.3889 11.1328 14.6337 8.66667H12.6479C12.5287 10.7656 11.8434 12.6918 10.6101 14.1363ZM14.6337 7.33333C14.3889 4.86721 12.8001 2.79642 10.6102 1.8637C11.8434 3.30825 12.5288 5.23448 12.6479 7.33333H14.6337ZM8 0C3.58172 0 0 3.58172 0 8C0 12.4183 3.58172 16 8 16C12.4183 16 16 12.4183 16 8C16 3.58172 12.4183 0 8 0ZM7.33333 14.1457C5.76868 12.9616 4.83588 11.0046 4.68757 8.66667H7.33333V14.1457ZM4.68756 7.33333H7.33333V1.85424C5.76866 3.03838 4.83586 4.99537 4.68756 7.33333ZM8.66667 14.1457V8.66667H11.3124C11.1641 11.0046 10.2313 12.9615 8.66667 14.1457ZM8.66667 7.33333H11.3124C11.1641 4.99538 10.2313 3.03839 8.66667 1.85425V7.33333Z" fill="#202327"/>
</g>
<defs>
<clipPath id="clip0_4_506">
<rect width="16" height="16" fill="white"/>
</clipPath>
</defs>
</svg>

<svg xmlns="http://www.w3.org/2000/svg" viewBox="0 0 16 16" class="sageicon"><path fill-rule="evenodd" d="M5.39 1.864a6.672 6.672 0 0 0-4.024 5.47h1.986c.12-2.1.805-4.026 2.038-5.47ZM1.366 8.667a6.672 6.672 0 0 0 4.024 5.47c-1.233-1.445-1.919-3.372-2.038-5.47H1.366Zm9.244 5.47a6.672 6.672 0 0 0 4.024-5.47h-1.986c-.12 2.099-.805 4.025-2.038 5.47Zm4.024-6.804a6.672 6.672 0 0 0-4.024-5.47c1.233 1.445 1.919 3.371 2.038 5.47h1.986ZM8 0a8 8 0 1 0 0 16A8 8 0 0 0 8 0Zm-.667 14.146c-1.564-1.184-2.497-3.141-2.645-5.48h2.645v5.48ZM4.688 7.333h2.645V1.854C5.77 3.038 4.836 4.995 4.688 7.334Zm3.979 6.813v-5.48h2.645c-.148 2.339-1.08 4.295-2.645 5.48Zm0-6.813h2.645c-.148-2.338-1.08-4.295-2.645-5.479v5.48Z"/></svg>
